icons/paperclip-24.svg

<svg xmlns="http://www.w3.org/2000/svg" width="24" height="24" viewBox="0 0 24 24"><path d="M19.187 3.588a2.75 2.75 0 00-3.889 0L5.575 13.31a4.5 4.5 0 006.364 6.364l8.662-8.662a.75.75 0 011.061 1.06L13 20.735a6 6 0 01-8.485-8.485l9.723-9.723a4.247 4.247 0 014.124-1.139 4.247 4.247 0 013.025 3.025 4.247 4.247 0 01-1.139 4.124l-9.193 9.193a2.64 2.64 0 01-1.858.779 2.626 2.626 0 01-1.854-.779c-.196-.196-.338-.47-.43-.726a2.822 2.822 0 01-.168-.946c0-.7.284-1.373.775-1.864l8.132-8.131a.749.749 0 011.275.326.749.749 0 01-.215.734l-8.131 8.132a1.148 1.148 0 00-.336.803c.003.204.053.405.146.587.01.018.018.028.02.032.22.215.501.332.786.332.29 0 .58-.121.798-.34l9.192-9.192a2.75 2.75 0 000-3.89z"/></svg>

<svg xmlns="http://www.w3.org/2000/svg" width="24" height="24" viewBox="0 0 24 24">
  <defs/>
  <path d="M19.187,3.588 C18.113,2.514 16.372,2.514 15.298,3.588 L5.575,13.31 C3.818,15.067 3.818,17.917 5.575,19.674 C7.332,21.431 10.182,21.431 11.939,19.674 L20.601,11.012 C20.895,10.728 21.363,10.731 21.652,11.021 C21.942,11.31 21.946,11.778 21.662,12.072 L13,20.735 C10.651,23.046 6.879,23.03 4.549,20.701 C2.22,18.371 2.204,14.599 4.515,12.25 L14.238,2.527 C15.307,1.432 16.882,0.997 18.362,1.388 C19.842,1.778 20.997,2.933 21.387,4.413 C21.778,5.893 21.343,7.468 20.248,8.537 L11.055,17.73 C10.563,18.225 9.895,18.505 9.197,18.509 C8.5,18.506 7.833,18.225 7.343,17.73 C7.147,17.534 7.005,17.26 6.913,17.004 C6.803,16.701 6.747,16.381 6.745,16.058 C6.745,15.358 7.029,14.685 7.52,14.194 L15.652,6.063 C15.839,5.862 16.121,5.78 16.386,5.848 C16.652,5.915 16.86,6.123 16.927,6.389 C16.995,6.654 16.913,6.936 16.712,7.123 L8.581,15.255 C8.368,15.468 8.247,15.757 8.245,16.058 C8.248,16.262 8.298,16.463 8.391,16.645 C8.401,16.663 8.409,16.673 8.411,16.677 C8.631,16.892 8.912,17.009 9.197,17.009 C9.487,17.009 9.777,16.888 9.995,16.669 L19.187,7.477 C20.262,6.403 20.262,4.661 19.187,3.587 Z"/>
</svg>
